%ISLANDTEST-1
#COMMENT BEGIN
MACHINE:OPTICS
DATE:29-11-18
TIME:14:03
Program notes:
#COMMENT END
#MCS OFF
#CS OFF
#RTCP OFF
#HSC OFF
G94
G70 G80 G90
G17 G40
G53
;CCOMP 0.11
D1
#RTCP ON
G70 G90 G17
G54
#HSC ON[FAST]
N100 G0   Z2. 
N102 G0 X.4558 Y.7 Z2. B0 C0 
N104 G0   Z.1 
N106 G01 X.4558 Y.7 Z0. B0 C0 F40.00
(JETON)
M61
M63
$FOR P18=1,P0,1
;START PATH 1
N108 G01 X.456 Y.8254 Z0. B0 C0 F50.00
N110 G01 X.4561 Y.8556 Z0. B0 C0 F50.00
N112 G01 X.4561 Y.8857 Z0. B0 C0 F50.00
N114 G01 X.4561 Y.9158 Z0. B0 C0 F50.00
N116 G01 X.4562 Y.946 Z0. B0 C0 F50.00
N118 G01 X.4562 Y.9761 Z0. B0 C0 F50.00
N120 G01 X.4563 Y1.0063 Z0. B0 C0 F50.00
N122 G01 X.4563 Y1.0364 Z0. B0 C0 F50.00
N124 G01 X.4563 Y1.0666 Z0. B0 C0 F50.00
N126 G01 X.4564 Y1.0967 Z0. B0 C0 F50.00
N128 G01 X.4564 Y1.1268 Z0. B0 C0 F50.00
N130 G01 X.4565 Y1.157 Z0. B0 C0 F50.00
N132 G01 X.4565 Y1.1871 Z0. B0 C0 F50.00
N134 G01 X.4565 Y1.2173 Z0. B0 C0 F50.00
N136 G01 X.4566 Y1.2474 Z0. B0 C0 F50.00
N138 G01 X.4566 Y1.2775 Z0. B0 C0 F50.00
N140 G01 X.4567 Y1.3077 Z0. B0 C0 F50.00
N142 G01 X.4567 Y1.3378 Z0. B0 C0 F50.00
N144 G01 X.4568 Y1.368 Z0. B0 C0 F50.00
N146 G01 X.4569 Y1.5 Z0. B0 C0 F50.00
N148 G01 X.6265 Y1.5 Z0. B0 C0 F50.00
N150 G01 X.6264 Y1.3693 Z0. B0 C0 F50.00
N152 G01 X.6262 Y1.3645 Z0. B0 C0 F50.00
N154 G01 X.6223 Y1.3412 Z0. B0 C0 F50.00
N156 G01 X.6191 Y1.3321 Z0. B0 C0 F50.00
N158 G01 X.6076 Y1.3123 Z0. B0 C0 F50.00
N160 G01 X.5922 Y1.2959 Z0. B0 C0 F50.00
N162 G01 X.5801 Y1.2866 Z0. B0 C0 F50.00
N164 G01 X.5669 Y1.2767 Z0. B0 C0 F50.00
N166 G01 X.5329 Y1.2442 Z0. B0 C0 F50.00
N168 G01 X.5077 Y1.2078 Z0. B0 C0 F50.00
N170 G01 X.4986 Y1.1895 Z0. B0 C0 F50.00
N172 G01 X.4838 Y1.1447 Z0. B0 C0 F50.00
N174 G01 X.4789 Y1.0985 Z0. B0 C0 F50.00
N176 G01 X.4796 Y1.0788 Z0. B0 C0 F50.00
N178 G01 X.488 Y1.0322 Z0. B0 C0 F50.00
N180 G01 X.5062 Y.988 Z0. B0 C0 F50.00
N182 G01 X.5242 Y.9603 Z0. B0 C0 F50.00
N184 G01 X.541 Y.9406 Z0. B0 C0 F50.00
N186 G01 X.56 Y.9224 Z0. B0 C0 F50.00
N188 G01 X.5802 Y.9067 Z0. B0 C0 F50.00
N190 G01 X.5865 Y.9021 Z0. B0 C0 F50.00
N192 G01 X.604 Y.8859 Z0. B0 C0 F50.00
N194 G01 X.6096 Y.8784 Z0. B0 C0 F50.00
N196 G01 X.6199 Y.8581 Z0. B0 C0 F50.00
N198 G01 X.6252 Y.8366 Z0. B0 C0 F50.00
N200 G01 X.6262 Y.8233 Z0. B0 C0 F50.00
N202 G01 X.6261 Y.7 Z0. B0 C0 F50.00
N204 G01 X.795 Y.7 Z0. B0 C0 F50.00
N206 G01 X.7949 Y.8234 Z0. B0 C0 F50.00
N208 G01 X.796 Y.8384 Z0. B0 C0 F50.00
N210 G01 X.7985 Y.8507 Z0. B0 C0 F50.00
N212 G01 X.8048 Y.8668 Z0. B0 C0 F50.00
N214 G01 X.8135 Y.8812 Z0. B0 C0 F50.00
N216 G01 X.8248 Y.8938 Z0. B0 C0 F50.00
N218 G01 X.8419 Y.9075 Z0. B0 C0 F50.00
N220 G01 X.8611 Y.9225 Z0. B0 C0 F50.00
N222 G01 X.8801 Y.9406 Z0. B0 C0 F50.00
N224 G01 X.8969 Y.9604 Z0. B0 C0 F50.00
N226 G01 X.9143 Y.9872 Z0. B0 C0 F50.00
N228 G01 X.927 Y1.0145 Z0. B0 C0 F50.00
N230 G01 X.9393 Y1.06 Z0. B0 C0 F50.00
N232 G01 X.9422 Y1.0966 Z0. B0 C0 F50.00
N234 G01 X.9402 Y1.1268 Z0. B0 C0 F50.00
N236 G01 X.9293 Y1.1725 Z0. B0 C0 F50.00
N238 G01 X.9144 Y1.206 Z0. B0 C0 F50.00
N240 G01 X.8982 Y1.2315 Z0. B0 C0 F50.00
N242 G01 X.8674 Y1.2654 Z0. B0 C0 F50.00
N244 G01 X.8416 Y1.2861 Z0. B0 C0 F50.00
N246 G01 X.8272 Y1.2971 Z0. B0 C0 F50.00
N248 G01 X.818 Y1.3064 Z0. B0 C0 F50.00
N250 G01 X.808 Y1.3203 Z0. B0 C0 F50.00
N252 G01 X.8008 Y1.3352 Z0. B0 C0 F50.00
N254 G01 X.7965 Y1.3514 Z0. B0 C0 F50.00
N256 G01 X.7946 Y1.3706 Z0. B0 C0 F50.00
N258 G01 X.7946 Y1.5 Z0. B0 C0 F50.00
N260 G01 X.9641 Y1.5 Z0. B0 C0 F50.00
N262 G01 X.9643 Y1.368 Z0. B0 C0 F50.00
N264 G01 X.9644 Y1.3378 Z0. B0 C0 F50.00
N266 G01 X.9644 Y1.3077 Z0. B0 C0 F50.00
N268 G01 X.9644 Y1.2775 Z0. B0 C0 F50.00
N270 G01 X.9645 Y1.2474 Z0. B0 C0 F50.00
N272 G01 X.9645 Y1.2173 Z0. B0 C0 F50.00
N274 G01 X.9646 Y1.1871 Z0. B0 C0 F50.00
N276 G01 X.9646 Y1.157 Z0. B0 C0 F50.00
N278 G01 X.9646 Y1.1268 Z0. B0 C0 F50.00
N280 G01 X.9647 Y1.0967 Z0. B0 C0 F50.00
N282 G01 X.9647 Y1.0666 Z0. B0 C0 F50.00
N284 G01 X.9648 Y1.0364 Z0. B0 C0 F50.00
N286 G01 X.9648 Y1.0063 Z0. B0 C0 F50.00
N288 G01 X.9648 Y.9761 Z0. B0 C0 F50.00
N290 G01 X.9649 Y.946 Z0. B0 C0 F50.00
N292 G01 X.9649 Y.9158 Z0. B0 C0 F50.00
N294 G01 X.965 Y.8857 Z0. B0 C0 F50.00
N296 G01 X.965 Y.8556 Z0. B0 C0 F50.00
N298 G01 X.9651 Y.8254 Z0. B0 C0 F50.00
N300 G01 X.9653 Y.665 Z0. B0 C0 F50.00
N302 G01 X.4558 Y.665 Z0. B0 C0 F50.00
N304 G01 X.4558 Y.7 Z0. B0 C0 F50.00
N312 G01 X.456 Y.8254 Z0. B0 C0 F50.00
N314 G01 X.4561 Y.8556 Z0. B0 C0 F50.00
N316 G01 X.4561 Y.8857 Z0. B0 C0 F50.00
N318 G01 X.4561 Y.9158 Z0. B0 C0 F50.00
N320 G01 X.4562 Y.946 Z0. B0 C0 F50.00
N322 G01 X.4562 Y.9761 Z0. B0 C0 F50.00
N324 G01 X.4563 Y1.0063 Z0. B0 C0 F50.00
N326 G01 X.4563 Y1.0364 Z0. B0 C0 F50.00
N328 G01 X.4563 Y1.0666 Z0. B0 C0 F50.00
N330 G01 X.4564 Y1.0967 Z0. B0 C0 F50.00
N332 G01 X.4564 Y1.1268 Z0. B0 C0 F50.00
N334 G01 X.4565 Y1.157 Z0. B0 C0 F50.00
N336 G01 X.4565 Y1.1871 Z0. B0 C0 F50.00
N338 G01 X.4565 Y1.2173 Z0. B0 C0 F50.00
N340 G01 X.4566 Y1.2474 Z0. B0 C0 F50.00
N342 G01 X.4566 Y1.2775 Z0. B0 C0 F50.00
N344 G01 X.4567 Y1.3077 Z0. B0 C0 F50.00
N346 G01 X.4567 Y1.3378 Z0. B0 C0 F50.00
N348 G01 X.4568 Y1.368 Z0. B0 C0 F50.00
N350 G01 X.457 Y1.535 Z0. B0 C0 F50.00
N352 G01 X.9641 Y1.535 Z0. B0 C0 F50.00
N354 G01 X.9643 Y1.368 Z0. B0 C0 F50.00
N356 G01 X.9644 Y1.3378 Z0. B0 C0 F50.00
N358 G01 X.9644 Y1.3077 Z0. B0 C0 F50.00
N360 G01 X.9644 Y1.2775 Z0. B0 C0 F50.00
N362 G01 X.9645 Y1.2474 Z0. B0 C0 F50.00
N364 G01 X.9645 Y1.2173 Z0. B0 C0 F50.00
N366 G01 X.9646 Y1.1871 Z0. B0 C0 F50.00
N368 G01 X.9646 Y1.157 Z0. B0 C0 F50.00
N370 G01 X.9646 Y1.1268 Z0. B0 C0 F50.00
N372 G01 X.9647 Y1.0967 Z0. B0 C0 F50.00
N374 G01 X.9647 Y1.0666 Z0. B0 C0 F50.00
N376 G01 X.9648 Y1.0364 Z0. B0 C0 F50.00
N378 G01 X.9648 Y1.0063 Z0. B0 C0 F50.00
N380 G01 X.9648 Y.9761 Z0. B0 C0 F50.00
N382 G01 X.9649 Y.946 Z0. B0 C0 F50.00
N384 G01 X.9649 Y.9158 Z0. B0 C0 F50.00
N386 G01 X.965 Y.8857 Z0. B0 C0 F50.00
N388 G01 X.965 Y.8556 Z0. B0 C0 F50.00
N390 G01 X.9651 Y.8254 Z0. B0 C0 F50.00
N392 G01 X.9652 Y.7 Z0. B0 C0 F50.00
N394 G01 X.795 Y.7 Z0. B0 C0 F50.00
N396 G01 X.7949 Y.8234 Z0. B0 C0 F50.00
N398 G01 X.796 Y.8384 Z0. B0 C0 F50.00
N400 G01 X.7985 Y.8507 Z0. B0 C0 F50.00
N402 G01 X.8048 Y.8668 Z0. B0 C0 F50.00
N404 G01 X.8135 Y.8812 Z0. B0 C0 F50.00
N406 G01 X.8248 Y.8938 Z0. B0 C0 F50.00
N408 G01 X.8419 Y.9075 Z0. B0 C0 F50.00
N410 G01 X.8611 Y.9225 Z0. B0 C0 F50.00
N412 G01 X.8801 Y.9406 Z0. B0 C0 F50.00
N414 G01 X.8969 Y.9604 Z0. B0 C0 F50.00
N416 G01 X.9143 Y.9872 Z0. B0 C0 F50.00
N418 G01 X.927 Y1.0145 Z0. B0 C0 F50.00
N420 G01 X.9393 Y1.06 Z0. B0 C0 F50.00
N422 G01 X.9422 Y1.0966 Z0. B0 C0 F50.00
N424 G01 X.9402 Y1.1268 Z0. B0 C0 F50.00
N426 G01 X.9293 Y1.1725 Z0. B0 C0 F50.00
N428 G01 X.9144 Y1.206 Z0. B0 C0 F50.00
N430 G01 X.8982 Y1.2315 Z0. B0 C0 F50.00
N432 G01 X.8674 Y1.2654 Z0. B0 C0 F50.00
N434 G01 X.8416 Y1.2861 Z0. B0 C0 F50.00
N436 G01 X.8272 Y1.2971 Z0. B0 C0 F50.00
N438 G01 X.818 Y1.3064 Z0. B0 C0 F50.00
N440 G01 X.808 Y1.3203 Z0. B0 C0 F50.00
N442 G01 X.8008 Y1.3352 Z0. B0 C0 F50.00
N444 G01 X.7965 Y1.3514 Z0. B0 C0 F50.00
N446 G01 X.7946 Y1.3706 Z0. B0 C0 F50.00
N448 G01 X.7946 Y1.5 Z0. B0 C0 F50.00
N450 G01 X.6265 Y1.5 Z0. B0 C0 F50.00
N452 G01 X.6264 Y1.3693 Z0. B0 C0 F50.00
N454 G01 X.6262 Y1.3645 Z0. B0 C0 F50.00
N456 G01 X.6223 Y1.3412 Z0. B0 C0 F50.00
N458 G01 X.6191 Y1.3321 Z0. B0 C0 F50.00
N460 G01 X.6076 Y1.3123 Z0. B0 C0 F50.00
N462 G01 X.5922 Y1.2959 Z0. B0 C0 F50.00
N464 G01 X.5801 Y1.2866 Z0. B0 C0 F50.00
N466 G01 X.5669 Y1.2767 Z0. B0 C0 F50.00
N468 G01 X.5329 Y1.2442 Z0. B0 C0 F50.00
N470 G01 X.5077 Y1.2078 Z0. B0 C0 F50.00
N472 G01 X.4986 Y1.1895 Z0. B0 C0 F50.00
N474 G01 X.4838 Y1.1447 Z0. B0 C0 F50.00
N476 G01 X.4789 Y1.0985 Z0. B0 C0 F50.00
N478 G01 X.4796 Y1.0788 Z0. B0 C0 F50.00
N480 G01 X.488 Y1.0322 Z0. B0 C0 F50.00
N482 G01 X.5062 Y.988 Z0. B0 C0 F50.00
N484 G01 X.5242 Y.9603 Z0. B0 C0 F50.00
N486 G01 X.541 Y.9406 Z0. B0 C0 F50.00
N488 G01 X.56 Y.9224 Z0. B0 C0 F50.00
N490 G01 X.5802 Y.9067 Z0. B0 C0 F50.00
N492 G01 X.5865 Y.9021 Z0. B0 C0 F50.00
N494 G01 X.604 Y.8859 Z0. B0 C0 F50.00
N496 G01 X.6096 Y.8784 Z0. B0 C0 F50.00
N498 G01 X.6199 Y.8581 Z0. B0 C0 F50.00
N500 G01 X.6252 Y.8366 Z0. B0 C0 F50.00
N502 G01 X.6262 Y.8233 Z0. B0 C0 F50.00
N504 G01 X.6261 Y.7 Z0. B0 C0 F50.00
N506 G01 X.4558 Y.7 Z0. B0 C0 F50.00
;END PATH 2
$ENDFOR
#HSC OFF
(JETOFF)
M64
M62
N508 G0   Z2. 
M5
#HSC OFF
F400
M30
