%STRAIGHT.270-01
(MACHINE:ROCKET)
(DATE:16-12-15)
(TIME:14:07)
(CCOMP 0.064)
N100 T1 D1 M6
G70 G90 G17
#RTCP ON
G54
N102 G0   Z2.  
N104 G0 X.017 Y-.103 Z2. B0 C0 
N106 G0   Z.1  
N108 G01 X.017 Y-.103 Z0. F40.00
(JETON)
#HSC ON [FAST 100]
M54
$FOR P1=1,P100,1
(START PATH 1)
N110 G01 X2.968 Y-.103 Z0. F30.00
N112 G01 X2.968 Y.103 Z0. F30.00
N114 G01 X.017 Y.103 Z0. F30.00
N116 G01 X.017 Y.0893 Z0. F30.00
N118 G01 X2.953 Y.0893 Z0. F30.00
N120 G01 X2.953 Y-.0893 Z0. F30.00
N122 G01 X.032 Y-.0893 Z0. F30.00
N124 G01 X.032 Y-.0755 Z0. F30.00
N126 G01 X2.938 Y-.0755 Z0. F30.00
N128 G01 X2.938 Y.0755 Z0. F30.00
N130 G01 X.017 Y.0755 Z0. F30.00
N132 G01 X.017 Y.0618 Z0. F30.00
N134 G01 X2.923 Y.0618 Z0. F30.00
N136 G01 X2.923 Y-.0618 Z0. F30.00
N138 G01 X.032 Y-.0618 Z0. F30.00
N140 G01 X.032 Y-.0481 Z0. F30.00
N142 G01 X2.908 Y-.0481 Z0. F30.00
N144 G01 X2.908 Y.0481 Z0. F30.00
N146 G01 X.017 Y.0481 Z0. F30.00
N148 G01 X.017 Y.0343 Z0. F30.00
N150 G01 X2.893 Y.0343 Z0. F30.00
N152 G01 X2.893 Y-.0343 Z0. F30.00
N154 G01 X.032 Y-.0343 Z0. F30.00
N156 G01 X.032 Y-.0206 Z0. F30.00
N158 G01 X2.878 Y-.0206 Z0. F30.00
N160 G01 X2.878 Y.0206 Z0. F30.00
N162 G01 X.017 Y.0206 Z0. F30.00
N164 G01 X.017 Y.0069 Z0. F30.00
N166 G01 X2.863 Y.0069 Z0. F30.00
N168 G01 X2.863 Y-.0069 Z0. F30.00
N170 G01 X.017 Y-.0069 Z0. F30.00
N172 G01 X.017 Y-.103 Z0. F30.00
(END PATH 1)
$ENDFOR
(JETOFF)
M53
M51
#HSC OFF
N174 G0   Z2.  
N176 M30
(EOF)
