%SURF-TEST-2-5AXIS
(MACHINE:ROCKET)
(DATE:10-12-15)
(TIME:13:28)
(CCOMP 0.06)
N100 T1 D1 M6
G70 G90 G17
#RTCP ON
G54
N102 G01 X-2.9262 Y-.1741 Z2.5694 B5.00 C90.00 F400.00
N104 G01 X-2.9262 Y-.3484 Z.577 B5.00  F400.00
(JETON)
N106 M00
#HSC ON [FAST 100]
M50
G04 K1.0
M52
G04 K1.0
(START PATH 1)
N108 G01 X-2.9212 Y-.3492 Z.5771 B5.00  F10.00
N110 G01 X-2.9162 Y-.3494 Z.5771 B5.00  F10.00
N112 G01 X-2.8162 Y-.3494 Z.5771 B5.00  F10.00
N114 G01 X-2.7162 Y-.3494 Z.5771 B5.00  F10.00
N116 G01 X-2.6163 Y-.3494 Z.5771 B5.00  F10.00
N118 G01 X-2.5163 Y-.3494 Z.5771 B5.00  F10.00
N120 G01 X-2.4163 Y-.3494 Z.5771 B5.00  F10.00
N122 G01 X-2.3163 Y-.3494 Z.5771 B5.00  F10.00
N124 G01 X-2.2163 Y-.3494 Z.5771 B5.00  F10.00
N126 G01 X-2.1164 Y-.3494 Z.5771 B5.00  F10.00
N128 G01 X-2.0164 Y-.3494 Z.5771 B5.00  F10.00
N130 G01 X-1.9164 Y-.3494 Z.5771 B5.00  F10.00
N132 G01 X-1.8164 Y-.3494 Z.5771 B5.00  F10.00
N134 G01 X-1.7163 Y-.3494 Z.5771 B5.00  F10.00
N136 G01 X-1.6163 Y-.3494 Z.5771 B5.00  F10.00
N138 G01 X-1.5163 Y-.3494 Z.5771 B5.00  F10.00
N140 G01 X-1.4162 Y-.3494 Z.5771 B5.00  F10.00
N142 G01 X-1.3162 Y-.3494 Z.5771 B5.00  F10.00
N144 G01 X-1.2162 Y-.3494 Z.5771 B5.00  F10.00
N146 G01 X-1.1162 Y-.3494 Z.5771 B5.00  F10.00
N148 G01 X-1.0162 Y-.3494 Z.5771 B5.00  F10.00
N150 G01 X-.9163 Y-.3494 Z.5771 B5.00  F10.00
N152 G01 X-.8163 Y-.3494 Z.5771 B5.00  F10.00
N154 G01 X-.7162 Y-.3494 Z.5771 B5.00  F10.00
N156 G01 X-.6162 Y-.3494 Z.5771 B5.00  F10.00
N158 G01 X-.5163 Y-.3494 Z.5771 B5.00  F10.00
N160 G01 X-.4163 Y-.3494 Z.5771 B5.00  F10.00
N162 G01 X-.3163 Y-.3494 Z.5771 B5.00  F10.00
N164 G01 X-.2163 Y-.3494 Z.5771 B5.00  F10.00
N166 G01 X-.1162 Y-.3494 Z.5771 B5.00  F10.00
N168 G01 X-.0162 Y-.3494 Z.5771 B5.00  F10.00
N170 G01 X.0837 Y-.3494 Z.5771 B5.00  F10.00
N172 G01 X.1837 Y-.3494 Z.5771 B5.00  F10.00
N174 G01 X.2838 Y-.3494 Z.5771 B5.00  F10.00
N176 G01 X.3838 Y-.3494 Z.5771 B5.00  F10.00
N178 G01 X.4838 Y-.3494 Z.5771 B5.00  F10.00
N180 G01 X.5837 Y-.3494 Z.5771 B5.00  F10.00
N182 G01 X.6838 Y-.3494 Z.5771 B5.00  F10.00
N184 G01 X.7838 Y-.3494 Z.5771 B5.00  F10.00
N186 G01 X.8838 Y-.3494 Z.5771 B5.00  F10.00
N188 G01 X.9838 Y-.3494 Z.5771 B5.00  F10.00
N190 G01 X1.0529 Y-.3494 Z.5771 B5.00  F10.00
N192 G01 X1.0729 Y-.3493 Z.5788 B7.05 C45.00 F10.00
N194 G01 X1.0728 Y-.3693 Z.5771 B5.00 C.01 F10.00
N196 G01 X1.0728 Y-.4093 Z.5771 B5.00 C.00 F10.00
N198 G01 X1.0729 Y-.4292 Z.5779 B5.00  F10.00
N200 G01 X.953 Y-.4293 Z.5771 B5.00 C270.00 F10.00
N202 G01 X.8529 Y-.4293 Z.5771 B5.00  F10.00
N204 G01 X.7529 Y-.4293 Z.5771 B5.00  F10.00
N206 G01 X.653 Y-.4293 Z.5771 B5.00  F10.00
N208 G01 X.553 Y-.4293 Z.5771 B5.00  F10.00
N210 G01 X.453 Y-.4293 Z.5771 B5.00  F10.00
N212 G01 X.353 Y-.4293 Z.5771 B5.00  F10.00
N214 G01 X.253 Y-.4293 Z.5771 B5.00  F10.00
N216 G01 X.153 Y-.4293 Z.5771 B5.00  F10.00
N218 G01 X.053 Y-.4293 Z.5771 B5.00  F10.00
N220 G01 X-.0471 Y-.4293 Z.5771 B5.00  F10.00
N222 G01 X-.1471 Y-.4293 Z.5771 B5.00  F10.00
N224 G01 X-.2471 Y-.4293 Z.5771 B5.00  F10.00
N226 G01 X-.3471 Y-.4293 Z.5771 B5.00  F10.00
N228 G01 X-.447 Y-.4293 Z.5771 B5.00  F10.00
N230 G01 X-.5471 Y-.4293 Z.5771 B5.00  F10.00
N232 G01 X-.6471 Y-.4293 Z.5771 B5.00  F10.00
N234 G01 X-.7471 Y-.4293 Z.5771 B5.00  F10.00
N236 G01 X-.8471 Y-.4293 Z.5771 B5.00  F10.00
N238 G01 X-.9471 Y-.4293 Z.5771 B5.00  F10.00
N240 G01 X-1.047 Y-.4293 Z.5771 B5.00  F10.00
N242 G01 X-1.147 Y-.4293 Z.5771 B5.00  F10.00
N244 G01 X-1.247 Y-.4293 Z.5771 B5.00  F10.00
N246 G01 X-1.347 Y-.4293 Z.5771 B5.00  F10.00
N248 G01 X-1.447 Y-.4293 Z.5771 B5.00  F10.00
N250 G01 X-1.547 Y-.4293 Z.5771 B5.00  F10.00
N252 G01 X-1.647 Y-.4293 Z.5771 B5.00  F10.00
N254 G01 X-1.747 Y-.4293 Z.5771 B5.00  F10.00
N256 G01 X-1.847 Y-.4293 Z.5771 B5.00  F10.00
N258 G01 X-1.947 Y-.4293 Z.5771 B5.00  F10.00
N260 G01 X-2.047 Y-.4293 Z.5771 B5.00  F10.00
N262 G01 X-2.147 Y-.4293 Z.5771 B5.00  F10.00
N264 G01 X-2.247 Y-.4293 Z.5771 B5.00  F10.00
N266 G01 X-2.347 Y-.4293 Z.5771 B5.00  F10.00
N268 G01 X-2.447 Y-.4293 Z.5771 B5.00  F10.00
N270 G01 X-2.547 Y-.4293 Z.5771 B5.00  F10.00
N272 G01 X-2.647 Y-.4293 Z.5771 B5.00  F10.00
N274 G01 X-2.747 Y-.4293 Z.5771 B5.00  F10.00
N276 G01 X-2.847 Y-.4293 Z.5771 B5.00  F10.00
N278 G01 X-2.9162 Y-.4293 Z.5771 B5.00  F10.00
N280 G01 X-2.9212 Y-.4295 Z.5771 B5.00  F10.00
N282 G01 X-2.9262 Y-.4303 Z.577 B5.00  F10.00
(END PATH 1)
(JETOFF)
M53
G04 K1.0
M51
G04 K1.0
#HSC OFF
N284 G01 X-2.9262 Y-.6046 Z2.5694 B5.00  F400.00
N286 M30
(EOF)
