%SURF-TEST-1
#COMMENT BEGIN
MACHINE:OPTICS
DATE:10-12-15
TIME:11:39
Program notes:
#COMMENT END
#MCS OFF
#CS OFF
#RTCP OFF
#HSC OFF
#KIN ID[1]
G94
G70 G80 G90
G17 G40
G53
;CCOMP 0.06
D1
#RTCP ON
G70 G90 G17
G54
N100 G0   Z2.1691 
N102 G0 X-2.7642 Y-.4616 Z2.1691 B0 C0 
N104 G0   Z.2691 
N106 G01 X-2.7642 Y-.4616 Z.1691 F40.00
(JETON)
M61
G04 K1.0
M63
G04 K1.0
#HSC ON [FAST]
;START PATH 1
N108 G01 X-2.6826 Y-.4616 Z.2275 F10.00
N110 G01 X-2.5997 Y-.4616 Z.2849 F10.00
N112 G01 X-2.516 Y-.4616 Z.3405 F10.00
N114 G01 X-2.4397 Y-.4616 Z.3886 F10.00
N116 G01 X-2.3684 Y-.4616 Z.4311 F10.00
N118 G01 X-2.3007 Y-.4616 Z.4691 F10.00
N120 G01 X-2.2359 Y-.4616 Z.5031 F10.00
N122 G01 X-2.11 Y-.4616 Z.562 F10.00
N124 G01 X-1.9913 Y-.4616 Z.6085 F10.00
N126 G01 X-1.8776 Y-.4616 Z.6441 F10.00
N128 G01 X-1.868 Y-.4616 Z.6467 F10.00
N130 G01 X-1.767 Y-.4616 Z.6696 F10.00
N132 G01 X-1.6645 Y-.4616 Z.6845 F10.00
N134 G01 X-1.5621 Y-.4616 Z.6914 F10.00
N136 G01 X-1.4631 Y-.4616 Z.6902 F10.00
N138 G01 X-1.4403 Y-.4616 Z.6888 F10.00
N140 G01 X-1.3333 Y-.4616 Z.6773 F10.00
N142 G01 X-1.2214 Y-.4616 Z.6575 F10.00
N144 G01 X-1.1034 Y-.4616 Z.6287 F10.00
N146 G01 X-.9773 Y-.4616 Z.5901 F10.00
N148 G01 X-.84 Y-.4616 Z.5401 F10.00
N150 G01 X-.686 Y-.4616 Z.4761 F10.00
N152 G01 X-.531 Y-.4616 Z.4058 F10.00
N154 G01 X-.3075 Y-.4616 Z.2981 F10.00
N156 G01 X-.0375 Y-.4616 Z.1649 F10.00
N158 G01 X.1436 Y-.4616 Z.0788 F10.00
N160 G01 X.2349 Y-.4616 Z.0376 F10.00
N162 G01 X.3268 Y-.4616 Z-.0018 F10.00
N164 G01 X.4153 Y-.4616 Z-.0376 F10.00
N166 G01 X.4981 Y-.4616 Z-.0688 F10.00
N168 G01 X.5767 Y-.4616 Z-.0963 F10.00
N170 G01 X.6841 Y-.4616 Z-.13 F10.00
N172 G01 X.8124 Y-.4616 Z-.1634 F10.00
N174 G01 X.9424 Y-.4616 Z-.189 F10.00
N176 G01 X1.073 Y-.4616 Z-.2065 F10.00
N178 G01 X1.2029 Y-.4616 Z-.2158 F10.00
N180 G01 X1.2509 Y-.4616 Z-.2172 F10.00
N182 G01 X1.3847 Y-.4616 Z-.2156 F10.00
N184 G01 X1.5255 Y-.4616 Z-.2061 F10.00
N186 G01 X1.6748 Y-.4616 Z-.1883 F10.00
N188 G01 X1.835 Y-.4616 Z-.1615 F10.00
N190 G01 X2.0095 Y-.4616 Z-.1245 F10.00
N192 G01 X2.2048 Y-.4616 Z-.0755 F10.00
N194 G01 X2.297 Y-.4616 Z-.0502 F10.00
;END PATH 1
#HSC OFF
(JETOFF)
M64
G04 K1.0
M62
G04 K1.0
N196 G0   Z2.1691 
M5
#HSC OFF
F400
 M30
