%SURF-TEST-1-5AXIS
(MACHINE:ROCKET)
(DATE:10-12-15)
(TIME:11:44)
(CCOMP 0.06)
N100 T1 D1 M6
G70 G90 G17
#RTCP ON
G54
N102 G01 X-3.9418 Y-.4516 Z1.7856 B-36.04  F400.00
N104 G01 X-2.765 Y-.4516 Z.1685 B-36.04  F400.00
N106 G01 X-2.7647 Y-.4587 Z.1686 B-36.04  F40.00
(JETON)
N108 M00
#HSC ON [FAST 100]
M50
G04 K1.0
M52
G04 K1.0
(START PATH 1)
N110 G01 X-2.7642 Y-.4616 Z.1691 B-36.04  F10.00
N112 G01 X-2.7236 Y-.4616 Z.1983 B-35.62  F10.00
N114 G01 X-2.6829 Y-.4616 Z.2273 B-35.15  F10.00
N116 G01 X-2.6419 Y-.4616 Z.2559 B-34.63  F10.00
N118 G01 X-2.6006 Y-.4616 Z.2841 B-34.07  F10.00
N120 G01 X-2.559 Y-.4616 Z.3119 B-33.45  F10.00
N122 G01 X-2.5172 Y-.4616 Z.3392 B-32.79  F10.00
N124 G01 X-2.475 Y-.4616 Z.366 B-32.06  F10.00
N126 G01 X-2.4325 Y-.4616 Z.3922 B-31.28  F10.00
N128 G01 X-2.3896 Y-.4616 Z.4179 B-30.43  F10.00
N130 G01 X-2.3462 Y-.4616 Z.4429 B-29.52  F10.00
N132 G01 X-2.3025 Y-.4616 Z.4671 B-28.53  F10.00
N134 G01 X-2.2583 Y-.4616 Z.4906 B-27.47  F10.00
N136 G01 X-2.2137 Y-.4616 Z.5133 B-26.33  F10.00
N138 G01 X-2.1686 Y-.4616 Z.535 B-25.11  F10.00
N140 G01 X-2.1231 Y-.4616 Z.5557 B-23.79  F10.00
N142 G01 X-2.0771 Y-.4616 Z.5753 B-22.39  F10.00
N144 G01 X-2.0306 Y-.4616 Z.5938 B-20.89  F10.00
N146 G01 X-1.9836 Y-.4616 Z.611 B-19.28  F10.00
N148 G01 X-1.9361 Y-.4616 Z.6268 B-17.58  F10.00
N150 G01 X-1.8882 Y-.4616 Z.6412 B-15.76  F10.00
N152 G01 X-1.8399 Y-.4616 Z.6539 B-13.85  F10.00
N154 G01 X-1.7912 Y-.4616 Z.665 B-11.82  F10.00
N156 G01 X-1.7421 Y-.4616 Z.6744 B-9.69  F10.00
N158 G01 X-1.6926 Y-.4616 Z.6818 B-7.46  F10.00
N160 G01 X-1.6429 Y-.4616 Z.6873 B-5.14  F10.00
N162 G01 X-1.593 Y-.4616 Z.6908 B-2.74  F10.00
N164 G01 X-1.543 Y-.4616 Z.6921 B-.41  F10.00
N166 G01 X-1.493 Y-.4616 Z.6915 B1.82  F10.00
N168 G01 X-1.4431 Y-.4616 Z.689 B3.95  F10.00
N170 G01 X-1.3933 Y-.4616 Z.6847 B5.96  F10.00
N172 G01 X-1.3436 Y-.4616 Z.6786 B7.85  F10.00
N174 G01 X-1.2942 Y-.4616 Z.671 B9.63  F10.00
N176 G01 X-1.245 Y-.4616 Z.6619 B11.29  F10.00
N178 G01 X-1.1961 Y-.4616 Z.6515 B12.84  F10.00
N180 G01 X-1.1475 Y-.4616 Z.6398 B14.28  F10.00
N182 G01 X-1.0992 Y-.4616 Z.6268 B15.61  F10.00
N184 G01 X-1.0512 Y-.4616 Z.6129 B16.84  F10.00
N186 G01 X-1.0035 Y-.4616 Z.5979 B17.98  F10.00
N188 G01 X-.956 Y-.4616 Z.582 B19.02  F10.00
N190 G01 X-.9089 Y-.4616 Z.5653 B19.97  F10.00
N192 G01 X-.8621 Y-.4616 Z.5479 B20.85  F10.00
N194 G01 X-.8155 Y-.4616 Z.5298 B21.64  F10.00
N196 G01 X-.7691 Y-.4616 Z.511 B22.36  F10.00
N198 G01 X-.7229 Y-.4616 Z.4917 B23.01  F10.00
N200 G01 X-.677 Y-.4616 Z.4719 B23.59  F10.00
N202 G01 X-.6313 Y-.4616 Z.4517 B24.11  F10.00
N204 G01 X-.5857 Y-.4616 Z.4311 B24.56  F10.00
N206 G01 X-.5403 Y-.4616 Z.4102 B24.96  F10.00
N208 G01 X-.4951 Y-.4616 Z.3889 B25.30  F10.00
N210 G01 X-.4499 Y-.4616 Z.3675 B25.59  F10.00
N212 G01 X-.4049 Y-.4616 Z.3458 B25.82  F10.00
N214 G01 X-.3599 Y-.4616 Z.3239 B26.00  F10.00
N216 G01 X-.315 Y-.4616 Z.302 B26.13  F10.00
N218 G01 X-.2702 Y-.4616 Z.2799 B26.22  F10.00
N220 G01 X-.2253 Y-.4616 Z.2578 B26.25  F10.00
N222 G01 X-.1805 Y-.4616 Z.2357 B26.24  F10.00
N224 G01 X-.1356 Y-.4616 Z.2136 B26.18  F10.00
N226 G01 X-.0907 Y-.4616 Z.1916 B26.07  F10.00
N228 G01 X-.0458 Y-.4616 Z.1697 B25.91  F10.00
N230 G01 X-.0008 Y-.4616 Z.1479 B25.70  F10.00
N232 G01 X.0443 Y-.4616 Z.1263 B25.45  F10.00
N234 G01 X.0895 Y-.4616 Z.105 B25.15  F10.00
N236 G01 X.1348 Y-.4616 Z.0839 B24.80  F10.00
N238 G01 X.1802 Y-.4616 Z.063 B24.39  F10.00
N240 G01 X.2259 Y-.4616 Z.0426 B23.94  F10.00
N242 G01 X.2717 Y-.4616 Z.0225 B23.43  F10.00
N244 G01 X.3176 Y-.4616 Z.0028 B22.86  F10.00
N246 G01 X.3638 Y-.4616 Z-.0164 B22.24  F10.00
N248 G01 X.4103 Y-.4616 Z-.035 B21.56  F10.00
N250 G01 X.4569 Y-.4616 Z-.0531 B20.81  F10.00
N252 G01 X.5038 Y-.4616 Z-.0706 B20.01  F10.00
N254 G01 X.5509 Y-.4616 Z-.0873 B19.13  F10.00
N256 G01 X.5983 Y-.4616 Z-.1033 B18.19  F10.00
N258 G01 X.646 Y-.4616 Z-.1185 B17.18  F10.00
N260 G01 X.6939 Y-.4616 Z-.1329 B16.10  F10.00
N262 G01 X.7421 Y-.4616 Z-.1462 B14.94  F10.00
N264 G01 X.7905 Y-.4616 Z-.1586 B13.70  F10.00
N266 G01 X.8392 Y-.4616 Z-.1699 B12.39  F10.00
N268 G01 X.8882 Y-.4616 Z-.1801 B10.99  F10.00
N270 G01 X.9375 Y-.4616 Z-.189 B9.53  F10.00
N272 G01 X.9869 Y-.4616 Z-.1966 B8.09  F10.00
N274 G01 X1.0365 Y-.4616 Z-.2031 B6.68  F10.00
N276 G01 X1.0862 Y-.4616 Z-.2083 B5.29  F10.00
N278 G01 X1.1361 Y-.4616 Z-.2123 B3.94  F10.00
N280 G01 X1.186 Y-.4616 Z-.2152 B2.62  F10.00
N282 G01 X1.2359 Y-.4616 Z-.2169 B1.35  F10.00
N284 G01 X1.2859 Y-.4616 Z-.2175 B.11  F10.00
N286 G01 X1.3359 Y-.4616 Z-.2171 B-1.09  F10.00
N288 G01 X1.3859 Y-.4616 Z-.2156 B-2.25  F10.00
N290 G01 X1.4359 Y-.4616 Z-.2132 B-3.36  F10.00
N292 G01 X1.4858 Y-.4616 Z-.2098 B-4.43  F10.00
N294 G01 X1.5356 Y-.4616 Z-.2055 B-5.46  F10.00
N296 G01 X1.5854 Y-.4616 Z-.2003 B-6.43  F10.00
N298 G01 X1.635 Y-.4616 Z-.1943 B-7.37  F10.00
N300 G01 X1.6845 Y-.4616 Z-.1875 B-8.26  F10.00
N302 G01 X1.734 Y-.4616 Z-.1799 B-9.11  F10.00
N304 G01 X1.7833 Y-.4616 Z-.1716 B-9.91  F10.00
N306 G01 X1.8325 Y-.4616 Z-.1627 B-10.68  F10.00
N308 G01 X1.8816 Y-.4616 Z-.1531 B-11.40  F10.00
N310 G01 X1.9305 Y-.4616 Z-.143 B-12.07  F10.00
N312 G01 X1.9794 Y-.4616 Z-.1322 B-12.71  F10.00
N314 G01 X2.0281 Y-.4616 Z-.121 B-13.31  F10.00
N316 G01 X2.0767 Y-.4616 Z-.1092 B-13.87  F10.00
N318 G01 X2.1252 Y-.4616 Z-.097 B-14.40  F10.00
N320 G01 X2.1735 Y-.4616 Z-.0843 B-14.88  F10.00
N322 G01 X2.2218 Y-.4616 Z-.0713 B-15.33  F10.00
N324 G01 X2.27 Y-.4616 Z-.0579 B-15.75  F10.00
N326 G01 X2.297 Y-.4616 Z-.0502 B-15.96  F10.00
N328 G01 X2.2977 Y-.4587 Z-.0501 B-15.96  F10.00
N330 G01 X2.298 Y-.4516 Z-.05 B-15.96  F10.00
(END PATH 1)
(JETOFF)
M53
G04 K1.0
M51
G04 K1.0
#HSC OFF
N332 G01 X1.7479 Y-.4516 Z1.8729 B15.96  F400.00
N334 M30
(EOF)
